X:1
T:Camp Meeting -- Hornpipe
R:hornpipe
C:Harry Carleton
B:Cole's 1000 Fiddle Tunes
M:2/4
L:1/16
K:C
((3uGAB)|vk[c4E4]uk[d4G4]|k"0"[c2e2]k[c2E2] z2udve|\
fedc dcBA|GABA GFED|
vk[c4E4]uk[d4G4]|k"0"[c2e2]k[c2E2] z2udve|\
fedc Bgfd|c2"4"e2c2:|
|:(uef)|vg^fga g=fed|cd"4"ec G2(fg)|a^ga_b a=gfe|fgaf d2(fe)|
d^cde fgba|cBcd efag|^fgba g=fed|c2"4"e2c2:|
